icon-svg/pendant-long.svg

<svg xmlns="http://www.w3.org/2000/svg" fill="#44739e" viewBox="0 0 24 24"><path d="m28.245 16.159-19.867 6.67a.995.995 0 0 1-.668-.013l-3.924-1.482c-.265-.1-.258-.48.011-.57l19.867-6.669a.986.986 0 0 1 .667.012l3.925 1.482c.264.1.258.479-.011.57m3.106-5.443-7.02-2.652a.986.986 0 0 0-.667-.012L17 10.289v-5.82C17 4.21 16.553 4 16 4s-1 .21-1 .469v6.492L.683 15.766c-.408.138-.683.523-.683.956v4.62c0 .42.259.795.648.942l7.021 2.651a.992.992 0 0 0 .667.013l22.98-7.715c.408-.137.684-.522.684-.956v-4.619c0-.42-.259-.795-.649-.942"/></svg>

<?xml version="1.0" encoding="UTF-8"?>
<svg width="32px" height="32px" viewBox="0 0 32 32" fill="#44739e" version="1.1" xmlns="http://www.w3.org/2000/svg" xmlns:xlink="http://www.w3.org/1999/xlink">
            <path d="M28.245,16.159 L8.378,22.829 C8.16,22.902 7.925,22.897 7.71,22.816 L3.786,21.334 C3.521,21.234 3.528,20.854 3.797,20.764 L23.664,14.095 C23.882,14.021 24.117,14.026 24.331,14.107 L28.256,15.589 C28.52,15.689 28.514,16.068 28.245,16.159 M31.351,10.716 L24.331,8.064 C24.117,7.983 23.882,7.978 23.664,8.052 L17,10.289 L17,4.749 L17,4.469 C17,4.21 16.553,4 16,4 C15.447,4 15,4.21 15,4.469 L15,4.749 L15,10.961 L0.683,15.766 C0.275,15.904 0,16.289 0,16.722 L0,21.342 C0,21.762 0.259,22.137 0.648,22.284 L7.669,24.935 C7.883,25.016 8.118,25.021 8.336,24.948 L31.316,17.233 C31.724,17.096 32,16.711 32,16.277 L32,11.658 C32,11.238 31.741,10.863 31.351,10.716"></path>
</svg>
